!!!OTL: Qigai diao
!!!ARE: Asia, China,ÿTaiwan
!! IV, 631
!!!SCT: C1700
!!!YEM: Copyright 1995, estate of Helmut Schaffrath.
**kern
*ICvox
*Ivox
*M2/4
*k[b-]
*F:
{8dd
8cc
=1
8dd
4cc
8a
=2
8.cc
16a
8g
8g
=3
4cc
4a}
=4
{8a
16a
16a
4f
=5
2g
=6
8.g
16f
4c
=7
8g
8d
4f}
=8
{8cc
16cc
16cc
8f
8g
=9
8f
8g
8f
8f
=10
8d
8f
4g}
=11
{8cc
8dd
8.cc
16cc
=12
8f
8a
16g
16f
8d
=13
8f
8d
8c
8c
=14
8f
8d
8c
8c
=15
4f}
==
!!!AGN: Xiaodiao
!!!AMT: simple duple
!!!AIN: vox
!!!EED: Helmut Schaffrath
!!!EEV: 1.0
*-
